Simply-Orange-Circles/scalable/apps/supertuxkart.svg

<svg xmlns="http://www.w3.org/2000/svg" width="48" height="48" viewBox="0 0 12.7 12.7"><path d="M6.34.07a6.29 6.29 0 0 0-6.29 6.3 6.29 6.29 0 0 0 6.3 6.28 6.29 6.29 0 0 0 6.28-6.29A6.29 6.29 0 0 0 6.34.07zM6.32 1l.01.01a5.4 5.4 0 0 1 5.4 5.4 5.4 5.4 0 0 1-5.4 5.41 5.4 5.4 0 0 1-5.41-5.4A5.4 5.4 0 0 1 6.32 1z" fill="#ff7f2a"/><path d="M6.45 2.18H6.3c-1.47.12-1.08 1.68-1.1 2.2-.03.38-.11.68-.37 1.05-.31.37-.74.96-.95 1.58-.05.16-.08.33-.1.5a2.98 1.49 0 0 0-.4.73v-.63c0-.23-.2-.42-.43-.42h-.42a.43.43 0 0 0-.43.42v1.7c0 .24.2.43.43.43h.42c.24 0 .43-.19.43-.43h.9a2.98 1.49 0 0 0 2.08.43 2.98 1.49 0 0 0 2.08-.43h.9c0 .24.2.43.43.43h.42c.24 0 .43-.19.43-.43v-1.7c0-.23-.2-.42-.43-.42h-.42a.43.43 0 0 0-.43.42v1.07H9.2a2.98 1.49 0 0 0 .13-.43 2.98 1.49 0 0 0-.21-.55c.05-.34-.01-.68-.13-1-.18-.49-.5-.92-.76-1.21-.27-.35-.55-.68-.54-1.17 0-.75.08-2.14-1.24-2.14zm.18 1.15c.08 0 .14.02.2.07.07.05.12.11.16.2.04.08.06.16.06.25v.01a.63.63 0 0 1-.13.4 2.46 2.46 0 0 0-.13-.05l-.07-.04c.01-.02.05-.04.06-.07a.4.4 0 0 0 .01-.3.26.26 0 0 0-.07-.1.13.13 0 0 0-.09-.05.14.14 0 0 0-.1.04.26.26 0 0 0-.07.1.43.43 0 0 0-.02.23 1.06 1.06 0 0 0-.21-.06v-.09c-.01-.1 0-.18.04-.27a.47.47 0 0 1 .15-.2.33.33 0 0 1 .21-.07zm-1.02.08c.05 0 .1.02.14.06a.4.4 0 0 1 .12.16c.03.07.05.14.05.23v.1a.6.6 0 0 0-.16.07v-.09a.4.4 0 0 0-.03-.12.22.22 0 0 0-.06-.08.1.1 0 0 0-.07-.03c-.03 0-.05.02-.07.04a.22.22 0 0 0-.04.1v.12c0 .05 0 .08.02.12a.22.22 0 0 0 .07.1l-.06.04-.05.03a.42.42 0 0 1-.1-.14.64.64 0 0 1-.04-.23c0-.08 0-.16.02-.23a.4.4 0 0 1 .1-.18c.05-.04.1-.06.15-.07h.01zm.47.59c.11 0 .25.04.42.14.1.07.18.08.37.16.09.03.14.08.16.13a.2.2 0 0 1 0 .16c-.03.12-.17.24-.36.3-.1.03-.18.1-.27.15a.6.6 0 0 1-.36.09.46.46 0 0 1-.26-.1c-.07-.06-.13-.13-.22-.18-.14-.08-.21-.17-.24-.25-.02-.08 0-.14.07-.2l.17-.12.06-.05c.06-.05.15-.15.3-.2A.5.5 0 0 1 6.07 4zm-.14.13l-.06.01c-.02.01-.06.03-.06.05 0 .02.03.03.05.03.02 0 .03-.02.05-.03.02-.01.05 0 .06-.03l-.01-.02h-.03zm.27 0l-.03.01v.02c0 .02.03.02.05.03l.05.03c.01 0 .04-.01.04-.03 0-.02-.03-.04-.05-.05a.14.14 0 0 0-.06 0zm.62.3c-.04 0-.04.05-.09.09l-.22.16c-.12.07-.32.17-.5.17a.65.65 0 0 1-.4-.16l-.12-.12c-.03-.02-.03-.07-.07-.08-.03 0-.03.07.02.11l.13.12c.11.08.26.17.45.17s.37-.1.52-.18c.08-.04.18-.11.24-.17.06-.05.1-.1.05-.1zm.22.27c.13.5.42 1.21.6 1.56.08.14.21.4.31.74a2.98 1.49 0 0 0-.55-.14 1.06 1.06 0 0 0 0-.1A1.06 1.06 0 0 0 6.35 5.7a1.06 1.06 0 0 0-1.06 1.06 1.06 1.06 0 0 0 0 .1 2.98 1.49 0 0 0-.6.16c.02-.12.05-.23.1-.35.2-.44.6-1.21.64-1.83l.1.07c.08.04.13.1.2.16a.5.5 0 0 0 .35.12c.14 0 .26-.04.35-.1.1-.05.18-.12.26-.14a.7.7 0 0 0 .36-.25zm.75 1.15a2 2 0 0 1 .57.96c.03.12.04.24.03.36a2.98 1.49 0 0 0-.13-.05C8.34 6.6 8 6.1 7.84 5.95c-.08-.07-.08-.1-.04-.1zM4.75 6c.04-.03.01.05-.14.33a1.7 1.7 0 0 0-.2.8 2.98 1.49 0 0 0-.13.05c0-.07 0-.15.03-.22.08-.37.3-.74.44-.96zm1.6.12a.64.64 0 0 1 .41.16l-.41.23-.41-.23a.64.64 0 0 1 .4-.16zm-.63.52l.23.14a2.98 1.49 0 0 0-.24.02.64.64 0 0 1 0-.04.64.64 0 0 1 .01-.12zm1.26 0a.64.64 0 0 1 0 .12.64.64 0 0 1 0 .04 2.98 1.49 0 0 0-.23-.02zm-.74.76c.06 0 .11.14.11.32v.64c0 .17-.05.32-.1.32-.07 0-.11-.15-.11-.32v-.64c0-.18.04-.32.1-.32zm.43 0c.06 0 .1.14.1.32v.64c0 .17-.04.32-.1.32-.06 0-.1-.15-.1-.32v-.64c0-.18.04-.32.1-.32zm-2.02.21a.43.43 0 0 1 .42.43.43.43 0 0 1-.42.42.43.43 0 0 1-.43-.42.43.43 0 0 1 .43-.43zm1.17 0c.06 0 .1.1.1.22v.42c0 .12-.04.21-.1.21-.06 0-.1-.1-.1-.2v-.43c0-.12.04-.22.1-.22zm1.28 0c.05 0 .1.1.1.22v.42c0 .12-.05.21-.1.21-.06 0-.11-.1-.11-.2v-.43c0-.12.05-.22.1-.22zm.95 0a.43.43 0 0 1 .43.43.43.43 0 0 1-.43.42.43.43 0 0 1-.42-.42.43.43 0 0 1 .42-.43zm-4.68.64a2.98 1.49 0 0 0 .13.43h-.13z" fill="#ff7f2a"/></svg>

<?xml version="1.0" encoding="UTF-8" standalone="no"?>
<svg
   xmlns:dc="http://purl.org/dc/elements/1.1/"
   xmlns:cc="http://creativecommons.org/ns#"
   xmlns:rdf="http://www.w3.org/1999/02/22-rdf-syntax-ns#"
   xmlns:svg="http://www.w3.org/2000/svg"
   xmlns="http://www.w3.org/2000/svg"
   xmlns:sodipodi="http://sodipodi.sourceforge.net/DTD/sodipodi-0.dtd"
   xmlns:inkscape="http://www.inkscape.org/namespaces/inkscape"
   width="48"
   height="48"
   viewBox="0 0 12.7 12.7"
   version="1.1"
   id="svg6"
   sodipodi:docname="supertuxkart.svg"
   inkscape:version="0.92.4 (5da689c313, 2019-01-14)">
  <metadata
     id="metadata12">
    <rdf:RDF>
      <cc:Work
         rdf:about="">
        <dc:format>image/svg+xml</dc:format>
        <dc:type
           rdf:resource="http://purl.org/dc/dcmitype/StillImage" />
        <dc:title></dc:title>
      </cc:Work>
    </rdf:RDF>
  </metadata>
  <defs
     id="defs10" />
  <sodipodi:namedview
     pagecolor="#ffffff"
     bordercolor="#666666"
     borderopacity="1"
     objecttolerance="10"
     gridtolerance="10"
     guidetolerance="10"
     inkscape:pageopacity="0"
     inkscape:pageshadow="2"
     inkscape:window-width="1087"
     inkscape:window-height="480"
     id="namedview8"
     showgrid="false"
     inkscape:zoom="4.9166667"
     inkscape:cx="2.1355932"
     inkscape:cy="24"
     inkscape:window-x="0"
     inkscape:window-y="25"
     inkscape:window-maximized="0"
     inkscape:current-layer="svg6" />
  <path
     d="M 6.34,0.07 A 6.29,6.29 0 0 0 0.05,6.37 6.29,6.29 0 0 0 6.35,12.65 6.29,6.29 0 0 0 12.63,6.36 6.29,6.29 0 0 0 6.34,0.07 Z M 6.32,1 6.33,1.01 a 5.4,5.4 0 0 1 5.4,5.4 5.4,5.4 0 0 1 -5.4,5.41 A 5.4,5.4 0 0 1 0.92,6.42 5.4,5.4 0 0 1 6.32,1 Z"
     id="path2"
     inkscape:connector-curvature="0"
     style="fill:#ff7f2a" />
  <path
     d="M 6.45,2.18 H 6.3 C 4.83,2.3 5.22,3.86 5.2,4.38 5.17,4.76 5.09,5.06 4.83,5.43 4.52,5.8 4.09,6.39 3.88,7.01 3.83,7.17 3.8,7.34 3.78,7.51 A 2.98,1.49 0 0 0 3.38,8.24 V 7.61 C 3.38,7.38 3.18,7.19 2.95,7.19 H 2.53 A 0.43,0.43 0 0 0 2.1,7.61 v 1.7 c 0,0.24 0.2,0.43 0.43,0.43 h 0.42 c 0.24,0 0.43,-0.19 0.43,-0.43 h 0.9 A 2.98,1.49 0 0 0 6.36,9.74 2.98,1.49 0 0 0 8.44,9.31 h 0.9 c 0,0.24 0.2,0.43 0.43,0.43 h 0.42 c 0.24,0 0.43,-0.19 0.43,-0.43 v -1.7 c 0,-0.23 -0.2,-0.42 -0.43,-0.42 H 9.77 A 0.43,0.43 0 0 0 9.34,7.61 V 8.68 H 9.2 A 2.98,1.49 0 0 0 9.33,8.25 2.98,1.49 0 0 0 9.12,7.7 C 9.17,7.36 9.11,7.02 8.99,6.7 8.81,6.21 8.49,5.78 8.23,5.49 7.96,5.14 7.68,4.81 7.69,4.32 7.69,3.57 7.77,2.18 6.45,2.18 Z m 0.18,1.15 c 0.08,0 0.14,0.02 0.2,0.07 0.07,0.05 0.12,0.11 0.16,0.2 0.04,0.08 0.06,0.16 0.06,0.25 V 3.86 A 0.63,0.63 0 0 1 6.92,4.26 2.46,2.46 0 0 0 6.79,4.21 L 6.72,4.17 C 6.73,4.15 6.77,4.13 6.78,4.1 A 0.4,0.4 0 0 0 6.79,3.8 0.26,0.26 0 0 0 6.72,3.7 0.13,0.13 0 0 0 6.63,3.65 0.14,0.14 0 0 0 6.53,3.69 0.26,0.26 0 0 0 6.46,3.79 0.43,0.43 0 0 0 6.44,4.02 1.06,1.06 0 0 0 6.23,3.96 V 3.87 C 6.22,3.77 6.23,3.69 6.27,3.6 A 0.47,0.47 0 0 1 6.42,3.4 0.33,0.33 0 0 1 6.63,3.33 Z M 5.61,3.41 c 0.05,0 0.1,0.02 0.14,0.06 A 0.4,0.4 0 0 1 5.87,3.63 C 5.9,3.7 5.92,3.77 5.92,3.86 v 0.1 A 0.6,0.6 0 0 0 5.76,4.03 V 3.94 A 0.4,0.4 0 0 0 5.73,3.82 0.22,0.22 0 0 0 5.67,3.74 0.1,0.1 0 0 0 5.6,3.71 c -0.03,0 -0.05,0.02 -0.07,0.04 a 0.22,0.22 0 0 0 -0.04,0.1 v 0.12 c 0,0.05 0,0.08 0.02,0.12 a 0.22,0.22 0 0 0 0.07,0.1 L 5.52,4.23 5.47,4.26 A 0.42,0.42 0 0 1 5.37,4.12 0.64,0.64 0 0 1 5.33,3.89 c 0,-0.08 0,-0.16 0.02,-0.23 A 0.4,0.4 0 0 1 5.45,3.48 C 5.5,3.44 5.55,3.42 5.6,3.41 Z M 6.08,4 C 6.19,4 6.33,4.04 6.5,4.14 6.6,4.21 6.68,4.22 6.87,4.3 6.96,4.33 7.01,4.38 7.03,4.43 a 0.2,0.2 0 0 1 0,0.16 C 7,4.71 6.86,4.83 6.67,4.89 6.57,4.92 6.49,4.99 6.4,5.04 A 0.6,0.6 0 0 1 6.04,5.13 0.46,0.46 0 0 1 5.78,5.03 C 5.71,4.97 5.65,4.9 5.56,4.85 5.42,4.77 5.35,4.68 5.32,4.6 5.3,4.52 5.32,4.46 5.39,4.4 L 5.56,4.28 5.62,4.23 C 5.68,4.18 5.77,4.08 5.92,4.03 A 0.5,0.5 0 0 1 6.07,4 Z M 5.94,4.13 5.88,4.14 C 5.86,4.15 5.82,4.17 5.82,4.19 c 0,0.02 0.03,0.03 0.05,0.03 0.02,0 0.03,-0.02 0.05,-0.03 0.02,-0.01 0.05,0 0.06,-0.03 L 5.97,4.14 H 5.94 Z m 0.27,0 -0.03,0.01 v 0.02 c 0,0.02 0.03,0.02 0.05,0.03 L 6.28,4.22 C 6.29,4.22 6.32,4.21 6.32,4.19 6.32,4.17 6.29,4.15 6.27,4.14 a 0.14,0.14 0 0 0 -0.06,0 z m 0.62,0.3 C 6.79,4.43 6.79,4.48 6.74,4.52 L 6.52,4.68 C 6.4,4.75 6.2,4.85 6.02,4.85 A 0.65,0.65 0 0 1 5.62,4.69 L 5.5,4.57 C 5.47,4.55 5.47,4.5 5.43,4.49 5.4,4.49 5.4,4.56 5.45,4.6 L 5.58,4.72 C 5.69,4.8 5.84,4.89 6.03,4.89 6.22,4.89 6.4,4.79 6.55,4.71 6.63,4.67 6.73,4.6 6.79,4.54 6.85,4.49 6.89,4.44 6.84,4.44 Z M 7.05,4.7 C 7.18,5.2 7.47,5.91 7.65,6.26 7.73,6.4 7.86,6.66 7.96,7 A 2.98,1.49 0 0 0 7.41,6.86 1.06,1.06 0 0 0 7.41,6.76 1.06,1.06 0 0 0 6.35,5.7 1.06,1.06 0 0 0 5.29,6.76 a 1.06,1.06 0 0 0 0,0.1 2.98,1.49 0 0 0 -0.6,0.16 C 4.71,6.9 4.74,6.79 4.79,6.67 4.99,6.23 5.39,5.46 5.43,4.84 l 0.1,0.07 c 0.08,0.04 0.13,0.1 0.2,0.16 A 0.5,0.5 0 0 0 6.08,5.19 C 6.22,5.19 6.34,5.15 6.43,5.09 6.53,5.04 6.61,4.97 6.69,4.95 A 0.7,0.7 0 0 0 7.05,4.7 Z M 7.8,5.85 A 2,2 0 0 1 8.37,6.81 C 8.4,6.93 8.41,7.05 8.4,7.17 A 2.98,1.49 0 0 0 8.27,7.12 C 8.34,6.6 8,6.1 7.84,5.95 7.76,5.88 7.76,5.85 7.8,5.85 Z M 4.75,6 C 4.79,5.97 4.76,6.05 4.61,6.33 a 1.7,1.7 0 0 0 -0.2,0.8 2.98,1.49 0 0 0 -0.13,0.05 c 0,-0.07 0,-0.15 0.03,-0.22 C 4.39,6.59 4.61,6.22 4.75,6 Z m 1.6,0.12 A 0.64,0.64 0 0 1 6.76,6.28 L 6.35,6.51 5.94,6.28 A 0.64,0.64 0 0 1 6.34,6.12 Z M 5.72,6.64 5.95,6.78 A 2.98,1.49 0 0 0 5.71,6.8 0.64,0.64 0 0 1 5.71,6.76 0.64,0.64 0 0 1 5.72,6.64 Z m 1.26,0 a 0.64,0.64 0 0 1 0,0.12 0.64,0.64 0 0 1 0,0.04 A 2.98,1.49 0 0 0 6.75,6.78 Z M 6.24,7.4 c 0.06,0 0.11,0.14 0.11,0.32 V 8.36 C 6.35,8.53 6.3,8.68 6.25,8.68 6.18,8.68 6.14,8.53 6.14,8.36 V 7.72 C 6.14,7.54 6.18,7.4 6.24,7.4 Z m 0.43,0 c 0.06,0 0.1,0.14 0.1,0.32 v 0.64 c 0,0.17 -0.04,0.32 -0.1,0.32 -0.06,0 -0.1,-0.15 -0.1,-0.32 V 7.72 C 6.57,7.54 6.61,7.4 6.67,7.4 Z M 4.65,7.61 A 0.43,0.43 0 0 1 5.07,8.04 0.43,0.43 0 0 1 4.65,8.46 0.43,0.43 0 0 1 4.22,8.04 0.43,0.43 0 0 1 4.65,7.61 Z m 1.17,0 c 0.06,0 0.1,0.1 0.1,0.22 v 0.42 c 0,0.12 -0.04,0.21 -0.1,0.21 -0.06,0 -0.1,-0.1 -0.1,-0.2 V 7.83 c 0,-0.12 0.04,-0.22 0.1,-0.22 z m 1.28,0 c 0.05,0 0.1,0.1 0.1,0.22 V 8.25 C 7.2,8.37 7.15,8.46 7.1,8.46 7.04,8.46 6.99,8.36 6.99,8.26 V 7.83 c 0,-0.12 0.05,-0.22 0.1,-0.22 z m 0.95,0 A 0.43,0.43 0 0 1 8.48,8.04 0.43,0.43 0 0 1 8.05,8.46 0.43,0.43 0 0 1 7.63,8.04 0.43,0.43 0 0 1 8.05,7.61 Z M 3.37,8.25 A 2.98,1.49 0 0 0 3.5,8.68 H 3.37 Z"
     id="path4"
     inkscape:connector-curvature="0"
     style="fill:#ff7f2a" />
</svg>
